Numix-GalliumOS/16/categories/preferences-composer.svg

<?xml version="1.0" encoding="UTF-8" standalone="no"?>
<svg
   xmlns:dc="http://purl.org/dc/elements/1.1/"
   xmlns:cc="http://creativecommons.org/ns#"
   xmlns:rdf="http://www.w3.org/1999/02/22-rdf-syntax-ns#"
   xmlns:svg="http://www.w3.org/2000/svg"
   xmlns="http://www.w3.org/2000/svg"
   xmlns:sodipodi="http://sodipodi.sourceforge.net/DTD/sodipodi-0.dtd"
   xmlns:inkscape="http://www.inkscape.org/namespaces/inkscape"
   width="16"
   height="16"
   viewBox="0 0 16 16"
   id="svg2"
   version="1.1"
   inkscape:version="0.91 r"
   sodipodi:docname="preferences-composer.svg">
  <metadata
     id="metadata10">
    <rdf:RDF>
      <cc:Work
         rdf:about="">
        <dc:format>image/svg+xml</dc:format>
        <dc:type
           rdf:resource="http://purl.org/dc/dcmitype/StillImage" />
        <dc:title />
      </cc:Work>
    </rdf:RDF>
  </metadata>
  <defs
     id="defs8" />
  <sodipodi:namedview
     pagecolor="#ffffff"
     bordercolor="#666666"
     borderopacity="1"
     objecttolerance="10"
     gridtolerance="10"
     guidetolerance="10"
     inkscape:pageopacity="0"
     inkscape:pageshadow="2"
     inkscape:window-width="1920"
     inkscape:window-height="1056"
     id="namedview6"
     showgrid="true"
     inkscape:zoom="20.85965"
     inkscape:cx="24.715406"
     inkscape:cy="20.653809"
     inkscape:window-x="0"
     inkscape:window-y="24"
     inkscape:window-maximized="1"
     inkscape:current-layer="svg2">
    <inkscape:grid
       type="xygrid"
       id="grid4138" />
  </sodipodi:namedview>
  <path
     style="fill:#9ddee4;fill-opacity:1"
     d="M 3.9637909,1 C 3.9637909,1 3,1 3,1.9351566 L 3,14.064845 C 3,15 3.9105434,15 3.9105434,15 l 8.1789146,0 C 13,15 13,14.064845 13,14.064845 L 13,2.8648433 11.178914,1 3.9105434,1 Z M 4,2 l 5,0 0,3 3,0 0,9 -8,0 z"
     id="path4"
     inkscape:connector-curvature="0"
     sodipodi:nodetypes="csscscccccccccccc" />
  <path
     style="fill:#9ddee4;fill-opacity:1;fill-rule:evenodd;stroke:none;stroke-width:1px;stroke-linecap:butt;stroke-linejoin:miter;stroke-opacity:1"
     d="M 14.474577,2.9999998 16.000001,4.5254236 9.2881354,11.237288 7,12 7.7627135,9.7118637 Z"
     id="path4168"
     inkscape:connector-curvature="0"
     sodipodi:nodetypes="cccccc" />
</svg>

<svg xmlns="http://www.w3.org/2000/svg" viewBox="0 0 16 16">
 <path d="m 3.964 1 c 0 0 -0.964 0 -0.964 0.935 l 0 12.13 c 0 0.935 0.911 0.935 0.911 0.935 l 8.179 0 c 0.911 0 0.911 -0.935 0.911 -0.935 l 0 -11.2 -1.821 -1.865 -7.268 0 m 0.089 1 l 5 0 0 3 3 0 0 9 -8 0 z" style="fill:#9ddee4;fill-opacity:1"/>
 <path d="m 14.475 3 1.525 1.525 -6.712 6.712 -2.288 0.763 0.763 -2.288" style="fill:#9ddee4;fill-opacity:1;stroke:none;fill-rule:evenodd"/>
</svg>
